X:90
T: Caterpillar
C: L. Mallette
Z: B.Black
R: jig
M: 6/8
L: 1/8
K: Ador
A | A3 AGA | cde dcA | G3 GDE | GDE G2 G |
A3 AGA | cde ged | c2 A BAG | EFG A2 :|
A | e3 edB | dBA BAG | AEF G3 | EFG A2 e |
d3 def | gfe dBA | BAG E3 | DEG A2 :|
